!!!OTL: Kurzab!
!!!OTL-incipit: ICH STAND AUF HOHEM BERGE
!!!COM: Volksweise
!!!ARE: Europa, Mitteleuropa, Deutschland
!!!SCT: F0883
!!!TXL: @@DE
!!!YEM: Copyright 1995, estate of Helmut Schaffrath.
**kern	**text
*ICvox	*
*clefG2	*
*M2/4	*
*k[b-]	*
*F:	*
!LO:TX:a:t=P:only the highest voice encoded:problem	!
{16aL	1._Jch
16b-J	.
=1	=1
8.cc	ſtand
16ff	auf
16cc/L	ho-
16aJ	.
16b-L	-hem
16gJ	.
=2	=2
4a	Ber-
8g}	-ge
{8g	und
=3	=3
8a	ſah
16ff/L	im
16ddJ	.
8cc/	tie-
8bn/	-fen
=4	=4
4cc/	Thal
8r}	.
{8cc/	mein
=5	=5
8ff/	fei-
8ff/	-nes
16ee/L	Lieb
16ddJ	.
8cc/	her-
=6	=6
4dd/	-rei-
8cc/}	-ten,
{8cc/	her-
=7	=7
4b-/	-rei-
8a}	-ten,
{8cc/	ſo
=8	=8
8dd/	hur-
16cc/L	-tig
16b-J	.
8a	und
8g	ſo
=9	=9
4f	drall.
8r}	.
==	==
!!!AGN: erzaehlendes Volks - Lied, Ballade
!!!ONB: ESAC (Essen Associative Code) Database: FINK
!!!AMT: simple duple
!!!AIN: vox
!!!EED: Helmut Schaffrath
!!!EEV: 1.0
!!!GTL: Romanzen und Balladen
!!Text: Volkslied
!!!source: Musikalischer Hausschatz der Deutschen. Eine Sammlung von über 1000 Liedern und Gesängen mit Singstimmen und Klavierbegleitung. Leipzig, Litterarisches Verlags-Haus.
!!!page: 634
!!!URL-scan: https://www.digitale-sammlungen.de/en/view/bsb11144622?page=570
!!!ENC: Anna Maria Matuszewska
!!!EEV: 2024/08/07
*-	*-